X: 7140
T: Christy Barry's
R: jig
M: 6/8
K: Gmajor
|:G2A BAG|A2B d2e|ged BGG|A2D AGE|
DGG BAG|A2B d2e|ged BGG|1 AGF GDB:|2 AGF GBd||
|:g3 gfg|abg d2e|ged BGG|A3 ABd|
g3 gfg|a2g d2e|ged BGG|AGF GBd|
g3 gfg|abg d2e|ged BGG|A2D AGE|
DGG BAG|A2B d2e|ged BGG|AGF GDB||

